svgs/cpu_z.svg

<svg width="24" height="24" viewBox="0 0 24 24" fill="none" xmlns="http://www.w3.org/2000/svg"><path d="M13.497 9.405h-2.86c-.612 0-1.11.503-1.11 1.12v2.81c0 .617.498 1.12 1.11 1.12h2.86c.611 0 1.109-.502 1.109-1.12v-2.81c0-.617-.498-1.12-1.11-1.12Zm3.613-5.892A.51.51 0 0 0 16.604 3a.51.51 0 0 0-.509.513V4.54h1.017V3.513Zm-1.806 0A.51.51 0 0 0 14.796 3a.51.51 0 0 0-.509.513V4.54h1.017V3.513Zm-1.807 0A.51.51 0 0 0 12.988 3a.51.51 0 0 0-.508.513V4.54h1.017V3.513Zm-1.807 0A.51.51 0 0 0 11.18 3a.51.51 0 0 0-.508.513V4.54h1.017V3.513Zm-1.808 0A.51.51 0 0 0 9.374 3a.51.51 0 0 0-.508.513V4.54h1.016V3.513Zm-1.807 0A.51.51 0 0 0 7.567 3a.51.51 0 0 0-.508.513V4.54h1.016V3.513ZM7.059 20.487a.51.51 0 0 0 .508.513.51.51 0 0 0 .508-.513V19.46H7.06v1.026Zm1.807 0a.51.51 0 0 0 .508.513.51.51 0 0 0 .508-.513V19.46H8.866v1.026Zm1.807 0a.51.51 0 0 0 .508.513.51.51 0 0 0 .509-.513V19.46h-1.017v1.026Zm1.807 0a.51.51 0 0 0 .508.513.51.51 0 0 0 .509-.513V19.46H12.48v1.026Zm1.807 0a.51.51 0 0 0 .508.513.51.51 0 0 0 .509-.513V19.46h-1.017v1.026Zm1.807 0a.51.51 0 0 0 .509.513.51.51 0 0 0 .508-.513V19.46h-1.017v1.026Zm4.398-4.61h-1.017v1.026h1.017A.51.51 0 0 0 21 16.39a.51.51 0 0 0-.508-.513Zm0-1.825h-1.017v1.027h1.017a.51.51 0 0 0 .508-.514.51.51 0 0 0-.508-.513Zm0-1.824h-1.017v1.026h1.017a.51.51 0 0 0 .508-.513.51.51 0 0 0-.508-.513Zm0-1.824h-1.017v1.026h1.017a.51.51 0 0 0 .508-.513.51.51 0 0 0-.508-.513Zm0-1.824h-1.017v1.026h1.017A.51.51 0 0 0 21 9.093a.51.51 0 0 0-.508-.514ZM21 7.268a.51.51 0 0 0-.508-.513h-1.017v1.026h1.017A.51.51 0 0 0 21 7.268Zm-18 0a.51.51 0 0 0 .508.513h1.017V6.755H3.508A.51.51 0 0 0 3 7.268Zm0 1.825a.51.51 0 0 0 .508.513h1.017V8.579H3.508A.51.51 0 0 0 3 9.093Zm0 1.824a.51.51 0 0 0 .508.513h1.017v-1.026H3.508a.51.51 0 0 0-.508.513Zm0 1.824a.51.51 0 0 0 .508.513h1.017v-1.026H3.508a.51.51 0 0 0-.508.513Zm0 1.824a.51.51 0 0 0 .508.514h1.017v-1.027H3.508a.51.51 0 0 0-.508.513Zm0 1.825a.51.51 0 0 0 .508.513h1.017v-1.026H3.508A.51.51 0 0 0 3 16.39Z" fill="#000"/><path d="M18.169 5.034H5.889a.681.681 0 0 0-.678.684v12.397a.68.68 0 0 0 .677.684h9.355l.004.035h1.016l.003-.035h1.903a.68.68 0 0 0 .677-.684V5.718a.68.68 0 0 0-.677-.684Zm-.31 5.587h-1.113a.78.78 0 0 0-.73-.52c-.43 0-.78.352-.78.786 0 .435.35.787.78.787a.777.777 0 0 0 .73-.52h1.114v1.571a2.238 2.238 0 0 0-.253-.013h-.905a.778.778 0 0 0-.73-.52.783.783 0 0 0-.78.787c0 .434.349.787.78.787a.778.778 0 0 0 .73-.52h.905c.104 0 .184.005.253.017v4.248c0 .161-.13.292-.29.292h-1.566c.005-.376.008-.864.008-1.125 0-.766-.428-1.223-1.144-1.223h-1.073a.775.775 0 0 0-1.489.318c0 .434.35.787.78.787a.778.778 0 0 0 .748-.578v.007h1.034c.426 0 .616.212.616.689 0 .264-.004.749-.008 1.125H8.059l-.003-1.125c0-.477.19-.69.617-.69h1.598c.093.33.39.572.746.572.43 0 .78-.352.78-.787a.783.783 0 0 0-.78-.787.779.779 0 0 0-.712.47H8.673c-.717 0-1.145.456-1.145 1.222 0 .061 0 .61.003 1.125H6.487a.291.291 0 0 1-.29-.292v-4.306c.478.002.953.006 1.19.009a.778.778 0 0 0 .731.522c.43 0 .78-.353.78-.787a.783.783 0 0 0-.78-.787.778.778 0 0 0-.73.518c-.24-.002-.713-.006-1.19-.008v-1.503H7.43c.109.303.393.52.73.52.431 0 .78-.352.78-.787a.783.783 0 0 0-.78-.786.777.777 0 0 0-.73.52H6.198V6.321c0-.161.13-.292.29-.292h4.267v1.26a.785.785 0 0 0-.515.738c0 .434.349.787.779.787.43 0 .78-.352.78-.787a.784.784 0 0 0-.516-.737V6.03h1.54v1.282a.785.785 0 0 0-.516.738c0 .434.349.787.78.787.43 0 .778-.353.778-.787a.784.784 0 0 0-.515-.737V6.03h4.221c.16 0 .29.13.29.292v4.298Z" fill="#000"/></svg>

<svg id="vector" xmlns="http://www.w3.org/2000/svg" width="24" height="24" viewBox="0 0 24 24"><path fill="#000000" d="M13.497,9.405H10.637C10.025,9.405 9.527,9.908 9.527,10.526V13.335C9.527,13.952 10.025,14.455 10.637,14.455H13.497C14.108,14.455 14.606,13.953 14.606,13.335V10.526C14.606,9.908 14.108,9.405 13.497,9.405Z" id="path_0"/><path fill="#000000" d="M17.111,3.513C17.111,3.23 16.883,3 16.603,3C16.322,3 16.094,3.23 16.094,3.513V4.539H17.111L17.111,3.513Z" id="path_1"/><path fill="#000000" d="M15.304,3.513C15.304,3.23 15.076,3 14.795,3C14.515,3 14.287,3.23 14.287,3.513V4.539H15.304V3.513H15.304Z" id="path_2"/><path fill="#000000" d="M13.497,3.513C13.497,3.23 13.269,3 12.988,3C12.708,3 12.48,3.23 12.48,3.513V4.539H13.497V3.513H13.497Z" id="path_3"/><path fill="#000000" d="M11.689,3.513C11.689,3.23 11.462,3 11.181,3C10.901,3 10.673,3.23 10.673,3.513V4.539H11.689V3.513H11.689Z" id="path_4"/><path fill="#000000" d="M9.882,3.513C9.882,3.23 9.655,3 9.374,3C9.093,3 8.866,3.23 8.866,3.513V4.539H9.882V3.513H9.882Z" id="path_5"/><path fill="#000000" d="M8.075,3.513C8.075,3.23 7.848,3 7.567,3C7.286,3 7.059,3.23 7.059,3.513V4.539H8.075L8.075,3.513Z" id="path_6"/><path fill="#000000" d="M7.059,20.487C7.059,20.77 7.286,21 7.567,21C7.848,21 8.075,20.77 8.075,20.487V19.461H7.059V20.487H7.059Z" id="path_7"/><path fill="#000000" d="M8.866,20.487C8.866,20.77 9.093,21 9.374,21C9.655,21 9.882,20.77 9.882,20.487V19.461H8.866V20.487H8.866Z" id="path_8"/><path fill="#000000" d="M10.673,20.487C10.673,20.77 10.901,21 11.181,21C11.462,21 11.689,20.77 11.689,20.487V19.461H10.673L10.673,20.487Z" id="path_9"/><path fill="#000000" d="M12.48,20.487C12.48,20.77 12.708,21 12.988,21C13.269,21 13.497,20.77 13.497,20.487V19.461H12.48L12.48,20.487Z" id="path_10"/><path fill="#000000" d="M14.287,20.487C14.287,20.77 14.515,21 14.795,21C15.076,21 15.304,20.77 15.304,20.487V19.461H14.287L14.287,20.487Z" id="path_11"/><path fill="#000000" d="M16.094,20.487H16.094C16.094,20.77 16.322,21 16.603,21C16.883,21 17.111,20.77 17.111,20.487V19.461H16.094L16.094,20.487Z" id="path_12"/><path fill="#000000" d="M20.492,15.877H19.475V16.903H20.492C20.772,16.903 21,16.673 21,16.39C21,16.106 20.772,15.877 20.492,15.877Z" id="path_13"/><path fill="#000000" d="M20.492,14.052H19.475V15.079H20.492C20.772,15.079 21,14.849 21,14.566C21,14.282 20.772,14.052 20.492,14.052Z" id="path_14"/><path fill="#000000" d="M20.492,12.228H19.475V13.254H20.492C20.772,13.254 21,13.025 21,12.741C21,12.458 20.772,12.228 20.492,12.228Z" id="path_15"/><path fill="#000000" d="M20.492,10.404H19.475V11.43H20.492C20.772,11.43 21,11.2 21,10.917C21,10.633 20.772,10.404 20.492,10.404Z" id="path_16"/><path fill="#000000" d="M20.492,8.579H19.475V9.606H20.492C20.772,9.606 21,9.376 21,9.093C21,8.809 20.772,8.579 20.492,8.579Z" id="path_17"/><path fill="#000000" d="M21,7.268C21,6.985 20.772,6.755 20.492,6.755H19.475V7.781H20.492C20.772,7.781 21,7.551 21,7.268Z" id="path_18"/><path fill="#000000" d="M3,7.268C3,7.551 3.228,7.781 3.508,7.781H4.525V6.755H3.508C3.228,6.755 3,6.985 3,7.268Z" id="path_19"/><path fill="#000000" d="M3,9.093C3,9.376 3.228,9.606 3.508,9.606H4.525V8.579H3.508C3.228,8.579 3,8.809 3,9.093Z" id="path_20"/><path fill="#000000" d="M3,10.917C3,11.2 3.228,11.43 3.508,11.43H4.525L4.525,10.404H3.508C3.228,10.404 3,10.633 3,10.917Z" id="path_21"/><path fill="#000000" d="M3,12.741C3,13.025 3.228,13.254 3.508,13.254H4.525V12.228H3.508C3.228,12.228 3,12.458 3,12.741Z" id="path_22"/><path fill="#000000" d="M3,14.565C3,14.849 3.228,15.078 3.508,15.078H4.525V14.052H3.508C3.228,14.052 3,14.282 3,14.565Z" id="path_23"/><path fill="#000000" d="M3,16.39C3,16.673 3.228,16.903 3.508,16.903H4.525V15.877H3.508C3.228,15.877 3,16.106 3,16.39Z" id="path_24"/><path fill="#000000" d="M18.169,5.034H5.888C5.514,5.034 5.211,5.34 5.211,5.718V18.115C5.211,18.493 5.514,18.799 5.888,18.799H15.243C15.245,18.81 15.245,18.822 15.247,18.834H16.263C16.264,18.822 16.265,18.81 16.266,18.799H18.169C18.543,18.799 18.846,18.493 18.846,18.115V5.718C18.846,5.34 18.543,5.034 18.169,5.034ZM17.86,10.62H16.746C16.637,10.319 16.353,10.1 16.016,10.1C15.585,10.1 15.236,10.453 15.236,10.887C15.236,11.322 15.585,11.674 16.016,11.674C16.353,11.674 16.638,11.456 16.746,11.154H17.86V12.725C17.785,12.717 17.703,12.712 17.607,12.712H16.702C16.593,12.409 16.309,12.191 15.971,12.191C15.541,12.191 15.192,12.544 15.192,12.979C15.192,13.413 15.541,13.766 15.971,13.766C16.309,13.766 16.593,13.548 16.702,13.245H17.607C17.711,13.245 17.791,13.252 17.86,13.263V17.511C17.86,17.672 17.73,17.803 17.57,17.803H16.004C16.009,17.427 16.012,16.94 16.012,16.678C16.012,15.912 15.584,15.455 14.868,15.455H13.795C13.675,15.179 13.404,14.986 13.086,14.986C12.656,14.986 12.307,15.339 12.307,15.773C12.307,16.208 12.656,16.56 13.086,16.56C13.444,16.56 13.743,16.315 13.834,15.982V15.988H14.868C15.294,15.988 15.484,16.201 15.484,16.678C15.484,16.941 15.48,17.427 15.476,17.803H8.059C8.057,17.287 8.056,16.74 8.056,16.678C8.056,16.201 8.246,15.988 8.673,15.988H10.271C10.364,16.317 10.661,16.56 11.017,16.56C11.448,16.56 11.797,16.208 11.797,15.773C11.797,15.339 11.448,14.986 11.017,14.986C10.699,14.986 10.426,15.18 10.305,15.455H8.673C7.956,15.455 7.528,15.912 7.528,16.678C7.528,16.739 7.529,17.287 7.531,17.803H6.487C6.327,17.803 6.197,17.672 6.197,17.511V13.205C6.675,13.207 7.15,13.211 7.387,13.214C7.495,13.517 7.78,13.736 8.118,13.736C8.548,13.736 8.897,13.383 8.897,12.949C8.897,12.514 8.548,12.162 8.118,12.162C7.781,12.162 7.497,12.379 7.388,12.68C7.148,12.678 6.675,12.674 6.197,12.672V11.169H7.431C7.54,11.472 7.824,11.69 8.162,11.69C8.592,11.69 8.941,11.337 8.941,10.902C8.941,10.468 8.592,10.116 8.162,10.116C7.824,10.116 7.54,10.333 7.432,10.635H6.197V6.322C6.197,6.161 6.327,6.03 6.487,6.03H10.754V7.29C10.454,7.4 10.238,7.688 10.238,8.028C10.238,8.462 10.588,8.815 11.018,8.815C11.448,8.815 11.797,8.462 11.797,8.028C11.797,7.688 11.582,7.401 11.282,7.291V6.03H12.821V7.312C12.521,7.422 12.306,7.709 12.306,8.05C12.306,8.484 12.655,8.837 13.085,8.837C13.516,8.837 13.864,8.484 13.864,8.05C13.864,7.709 13.649,7.422 13.349,7.313V6.03H17.57C17.73,6.03 17.86,6.161 17.86,6.322V10.62Z" id="path_25"/></svg>
